X:153
T: Weihnachtslied
N: A0519
O: Europa, Mitteleuropa, Deutschland
N: Strassburger Hs. 121.
R: Romanze, Ballade, Lied, religioeses Lied
M: 4/2
L: 1/4
K: C
c2 | B2A2B3c | A2G2G2z
c | B2A2E2G2 | F2E2E2
D2 | E2F2F2E2 | D2C2C2
G2 | G2A2B2c2 | G2E2E2
D2 | F2E2C2E2 | F2E2E2
D2 | F2E2C2E2 | F2E2E2

@@@ Tune index: 466
